X:1
T:Title
%%score 1 2 3 4
L:1/8
Q:1/4=100
M:6/4
K:C
V:1 treble nm="Sopraan" snm="Sop."
V:2 treble nm="Alt" snm="A."
V:3 treble-8 nm="Tenor" snm="T."
V:4 bass nm="Bas" snm="Bs."
V:1
 z12 | z4 A2- A z A2 A2 |[M:4/4] ^F2 A2 E2 z D | ^F2 F2 ^C2 B,2 |[M:6/4] .A6 z6 | %5
[M:4/4] z2 B2 A2 z A | ^F2 A2 B2 F2 |[M:6/4] A2 B2 e^c- cB ^G4 |[M:4/4] ^F6 z2 |] %9
V:2
 z12 | z4 D2- D z D2 D2 |[M:4/4] D2 D2 C2 z D | E2 ^F2 E2 D2 |[M:6/4] .E6 z6 | %5
[M:4/4] z2 ^F2 E2 z E | ^C2 E2 ^F2 C2 |[M:6/4] E2 ^F2 B^G- GF _E4 |[M:4/4] ^C6 z2 |] %9
V:3
 A4 A2 A2 ^F2 A2 | .E3 D ^F2 F2 ^C2 B,2 |[M:4/4] A2 z B AB A2- | ABdB A ^F2 A | %4
[M:6/4] B2 B2 A2 z A ^F2 A2 |[M:4/4] B2 ^F2 A2 B2 | e ^c2 B A ^F2 A |[M:6/4] B12- |[M:4/4] B6 z2 |] %9
V:4
 z12 | z4 D,2- D, z D,2 D,2 |[M:4/4] D,2 D,2 A,,2 z B,, | D,2 D,2 D,2 D,2 |[M:6/4] .A,,6 z6 | %5
[M:4/4] z2 A,,2 A,,2 z A,, | A,,2 A,,2 E,2 A,,2 |[M:6/4] A,,2 A,,2 E,2- E,3 z E,2 | %8
[M:4/4] [A,,E,]6 z2 |] %9

